src/lib/packages/icons/src/assets/filled/filter-minus.svg

<svg width="24" height="24" viewBox="0 0 24 24" fill="none" xmlns="http://www.w3.org/2000/svg">
<path d="M17 9C16.2089 9 15.4355 9.23461 14.7777 9.67413C14.1199 10.1137 13.6072 10.7384 13.3044 11.4693C13.0017 12.2002 12.9226 13.0044 13.0769 13.7804C13.2312 14.5563 13.6122 15.269 14.1716 15.8284C14.731 16.3878 15.4437 16.7688 16.2196 16.9231C16.9955 17.0775 17.7999 16.9983 18.5308 16.6955C19.2617 16.3928 19.8864 15.8801 20.3259 15.2223C20.7655 14.5645 21 13.7911 21 13C21 11.9391 20.5785 10.9217 19.8284 10.1716C19.0782 9.42142 18.0609 9 17 9ZM18.25 13.5H15.75C15.6174 13.5 15.4903 13.4473 15.3965 13.3535C15.3027 13.2598 15.25 13.1326 15.25 13C15.25 12.8674 15.3027 12.7402 15.3965 12.6465C15.4903 12.5527 15.6174 12.5 15.75 12.5H18.25C18.3826 12.5 18.5097 12.5527 18.6035 12.6465C18.6973 12.7402 18.75 12.8674 18.75 13C18.75 13.1326 18.6973 13.2598 18.6035 13.3535C18.5097 13.4473 18.3826 13.5 18.25 13.5ZM13.8719 17.511C13.9112 17.5376 13.9434 17.5734 13.9657 17.6152C13.988 17.657 13.9997 17.7036 14 17.751V21L10 18V14C10.0001 13.8027 9.96124 13.6074 9.88574 13.4252C9.81024 13.2429 9.69963 13.0774 9.56006 12.938L4.43994 7.81799C4.30037 7.6786 4.18976 7.51304 4.11426 7.33081C4.03876 7.14858 3.99991 6.95327 4 6.75601V4.5C4 4.10218 4.15803 3.72064 4.43933 3.43933C4.72064 3.15803 5.10218 3 5.5 3H18.5C18.8978 3 19.2794 3.15803 19.5607 3.43933C19.842 3.72064 20 4.10218 20 4.5V6.76001C19.9997 7.1577 19.8414 7.53897 19.5601 7.82001L19.5 7.88C19.473 7.90854 19.4404 7.93124 19.4043 7.94672C19.3682 7.96219 19.3293 7.97012 19.29 7.97C19.2494 7.96824 19.2091 7.96154 19.17 7.95001C17.918 7.40517 16.5078 7.34636 15.2147 7.78506C13.9217 8.22377 12.8385 9.12852 12.1765 10.3228C11.5145 11.517 11.3212 12.915 11.6343 14.2441C11.9474 15.5732 12.7445 16.7379 13.87 17.511H13.8719Z" fill="currentColor"/>
</svg>

<svg xmlns="http://www.w3.org/2000/svg" width="24" height="24" fill="none"><path fill="currentColor" d="M17 9a4 4 0 1 0 0 8 4 4 0 0 0 0-8Zm1.25 4.5h-2.5a.5.5 0 0 1 0-1h2.5a.5.5 0 0 1 0 1Zm-4.378 4.011a.292.292 0 0 1 .128.24V21l-4-3v-4a1.5 1.5 0 0 0-.44-1.062l-5.12-5.12A1.5 1.5 0 0 1 4 6.756V4.5A1.5 1.5 0 0 1 5.5 3h13A1.5 1.5 0 0 1 20 4.5v2.26a1.5 1.5 0 0 1-.44 1.06l-.06.06a.288.288 0 0 1-.21.09.501.501 0 0 1-.12-.02 5.491 5.491 0 0 0-5.3 9.561h.002Z"/></svg>
